X:1175
T:Paddy O'Snap.
B:O'Neill's Music of Ireland
N:O'Nell's - 1175
Z:Transcribed by Stephen Foy (shf@access.digex.net)
Z:abc 1.6
M:9/8
R:slipjig
K:D
f2 d edcd fed|g2 e efd cBA|f2 d edcd fed|efg ABc d2:|
|:Aa2 A ABG FAd|B2 e efd efg|Aa2 A ABG FAd|efg ABc d2:|
